X: 30124
T: Old Bog Road, The
R: waltz
M: 3/4
K: Gmajor
|D4 D2|E4 F2|A2 (G4|G4) G2|
(G4 G2)|F4 =F2|(^F6|F2) E2 D2|
(c4 c2|c4) cd|c4 B2|B4 Bc|
B4 A2|B4 A2|(G6|1 G4) D2:|2 G4 Bc||
d4 d2|c4 cd|c4 B2|B4 D2|
E4 F2|A4 G2|(D4 D2|D4) B,C|
D4 G2|B4 d2|d4 c2|E4 FE|
(D4 D2)|(A4 A2)|(G4 G2|G4) D2||

